.local/share/icons/Gruvbox-Plus-Dark/panel/16/pushbullet-indicator-sync2-light.svg

<svg xmlns="http://www.w3.org/2000/svg" width="16" height="16" version="1.1">
 <defs>
  <style id="current-color-scheme" type="text/css">
   .ColorScheme-Text { color:#ebdbb2; } .ColorScheme-Highlight { color:#458588; }
  </style>
 </defs>
 <path style="fill:currentColor" class="ColorScheme-Text" d="M -2e-4,2 V 14 H 1.9998 V 2 Z M 3.9998,2 V 14 L 8.252,13.967 C 11.183,13.934 11.46,13.895 12.699,13.291 15.401,11.975 16.679,8.786 15.64,5.9472 14.954,4.0721 13.392,2.6844 11.403,2.1795 10.778,2.0209 10.383,1.9998 7.955,1.9998 H 3.9993 Z M 5.9998,4 H 8 9 V 5 7 H 8 V 5.6875 C 7.443,6.1229 6.9995,6.83 6.9996,8 6.9996,11 10,11 10,11 V 12 C 10,12 5.9996,12 5.9996,8 5.9996,6.5174 6.5579,5.5872 7.25,5 H 5.9996 V 4 Z M 10,4 C 10,4 14,4 14,8 14,9.483 13.442,10.413 12.75,11 H 14 V 12 H 12 11 V 11 9 H 12 V 10.313 C 12.557,9.878 13,9.17 13,8 13,5 10,5 10,5 Z"/>
</svg>

<svg width="16" height="16" version="1.1" xmlns="http://www.w3.org/2000/svg">
  <defs>
    <style id="current-color-scheme" type="text/css">.ColorScheme-Text { color:#ebdbb2; } .ColorScheme-Highlight { color:#458588; } .ColorScheme-NeutralText { color:#fe8019; } .ColorScheme-PositiveText { color:#689d6a; } .ColorScheme-NegativeText { color:#fb4934; }</style>
  </defs>
  <path class="ColorScheme-Text" d="m-2e-4 2v12h2v-12zm4 0v12l4.252-0.033c2.931-0.033 3.208-0.072 4.447-0.676 2.702-1.316 3.98-4.505 2.941-7.344-0.686-1.875-2.248-3.263-4.237-3.768-0.625-0.1586-1.02-0.1797-3.448-0.1797h-3.956zm2 2h3v3h-1v-1.312c-0.557 0.4354-1 1.142-1 2.312 0 3 3 3 3 3v1s-4 0-4-4c0-1.483 0.5583-2.413 1.25-3h-1.25v-1zm4 0s4 0 4 4c0 1.483-0.558 2.413-1.25 3h1.25v1h-3v-3h1v1.313c0.557-0.435 1-1.143 1-2.313 0-3-3-3-3-3z" fill="currentColor"/>
</svg>
